X:489
T:Polska # 489
T: efter Melker Andersson
M:3/4
L:1/16
K: G
Q: 110
|: (DF)AF (DF)AF D2c2| (cB)cB G8| G3B (AB)cA G4| G3B (AB)cA B4| d2g2 (fa)ge d2B2|
d2g2 (fa)gf e4| (cB)AB (cd)efg2Bd| [1 (ec)AF F2G2 G4 :|[2 (ec)AF F2G2 G3B|
|: (cB)AB (cd)ef g2ag| d2Bd c2A2 A4| (cB)AB (cd)ef (gB)cd| (ec)Ac B2G2G4|
(cB)AB (cd)ef g2ag| d2cd c2A2 A4| (cB)AB (cd)ef (gB)cd|1 (ec)AF F2G2 G3B :|
[2ecAF F2G2 G4|

